public/assets/images/file-download-icon.svg

<svg width="122" height="122" viewBox="0 0 122 122" fill="none" xmlns="http://www.w3.org/2000/svg">
<path d="M71.1667 10.1667H30.5C24.8575 10.1667 20.3333 14.6908 20.3333 20.3333V101.667C20.3333 107.309 24.8575 111.833 30.5 111.833H91.5C97.1425 111.833 101.667 107.309 101.667 101.667V40.6667L71.1667 10.1667ZM61 96.5833L40.6667 76.25H53.375V61H68.625V76.25H81.3333L61 96.5833ZM66.0833 45.75V17.7917L94.0417 45.75H66.0833Z" fill="#ecf0f1"/>
</svg>

<svg xmlns="http://www.w3.org/2000/svg" width="122" height="122" fill="none"><path fill="#ecf0f1" d="M71.167 10.167H30.5a10.132 10.132 0 0 0-10.167 10.166v81.334A10.131 10.131 0 0 0 30.5 111.833h61a10.132 10.132 0 0 0 10.167-10.166v-61zM61 96.583 40.667 76.25h12.708V61h15.25v15.25h12.708zm5.083-50.833V17.792L94.042 45.75z"/></svg>
